X: 188
T: Gadameiling
L: 1/4
M: 4/4
K: F
DAAG/ A/ [I:setbarnb 1]| 
cdFD | 
GA/ G/FD | 
G>Acf | 
d4 | 
cdcA/ c/ | 
cdFD | 
FD/ F/CD | 
GG/ A/cF | 
D4 |]

@@@ Tune index: 8856
